X:56
T:God Rest Ye Merry Gentlemen
%%stretchlast false
M:4/4
L:1/4
K:Eb clef=C1
"^vi"[Cc] [CEc] [Ceg] "^III¹"[=B,Ddg] | "^V/vi"[G,G=Bf] "^vi"[CGce] "^iii"[G,GBd] "^IV"[A,EAc] | "^I"[E,EGB] "^IV"[A,Ec] "^V/vi"[G,G=Bd] "^vi"[CGce] | "^ii¹"[A,Ccf] "^V/vi"[G,D=Bg]3 | "^vi"[Cc] [CEc] [Ceg] "^III¹"[=B,Ddg] | "^V/vi"[G,G=Bf] "^vi"[CGce] "^iii"[G,GBd] "^IV"[A,EAc] | "^I"[E,EGB] "^IV"[A,Ec] "^V/vi"[G,G=Bd] "^vi"[CGce] | "^ii¹"[A,Ccf] "^V/vi"[G,D=Bg]2 "^vi"[Cc] | "^VI¹"[=EFcg] "^V7¹"[DFBa] [EFBf] "^vi"[CEeg] | "^♯vi°"[G,E_da] "^IV"[A,Ecb] "^vi7¹"[E,EBc'] "^III+"[G,E=Bg] | "^vii7³"[CDcf] "^♭v°¹"[CE=Ae] "^vi7³"[B,EBc] "^I"[G,Fde] | "^i7²"[B,Bde] "^V"[B,Bdf] "^ii7²"[CAef] "^Imaj7³"[DGBe] | "^i"[EFBf] "^I"[EBg] "^IVmaj7"[A,Ecg] "^i"[EBa] | "^I"[E,Eeg] "^iii7³"[F,Bdg] "^ii"[G,Acf] "^III+"[G,G=Be] | "^vi"[CGcd] [CEc] [CEGc]/ [CEGc]/ "^♭v°¹"[CE=Ae]/ [CE=Ad]/ | "^vi7³"[B,EBc] "^V7³"[A,DBf] "^ii"[G,Fcf] "^V²"[F,Bde] | [E,Aef] "^vi"[CGeg] "^I"[G,Eea] "^i¹"[A,Beb] | "^IV²"[E,Aec'] "^iii7³"[F,Bdg] "^ii"[G,Acf] "^III+"[G,G=Be] | "^vi"[CGcd] [CEc]3 |]
